dist/assets/img/cart-action.svg

<svg width="24" height="21" viewBox="0 0 24 21" fill="none" xmlns="http://www.w3.org/2000/svg">
<path d="M1.7276 0.818082C1.62713 0.416238 1.21993 0.171926 0.818082 0.272397C0.416238 0.372868 0.171926 0.780075 0.272397 1.18192L1.7276 0.818082ZM5.76564 15.7854L6.21646 15.186L5.76564 15.7854ZM3.02129 9.25175L3.75064 9.07694L3.02129 9.25175ZM5.58574 15.6435L6.06354 15.0654L5.58574 15.6435ZM22.0192 9.74254L22.7485 9.91734L22.0192 9.74254ZM19.8897 15.3575L19.3643 14.8223L19.8897 15.3575ZM19.0404 16.0273L19.4384 16.663L19.0404 16.0273ZM21.9421 5.75597L22.4568 5.21052L21.9421 5.75597ZM22.3038 6.21465L22.9542 5.8412L22.3038 6.21465ZM14.0001 9.25C13.5859 9.25 13.2501 9.58579 13.2501 10C13.2501 10.4142 13.5859 10.75 14.0001 10.75V9.25ZM17.0001 12.25C16.5859 12.25 16.2501 12.5858 16.2501 13C16.2501 13.4142 16.5859 13.75 17.0001 13.75V12.25ZM2.05273 5.96053H18.445V4.46053H2.05273V5.96053ZM13.0837 16.0395H12.5791V17.5395H13.0837V16.0395ZM3.75064 9.07694L2.78208 5.03572L1.32339 5.38533L2.29195 9.42655L3.75064 9.07694ZM2.78034 5.02861L1.7276 0.818082L0.272397 1.18192L1.32513 5.39244L2.78034 5.02861ZM12.5791 16.0395C10.7352 16.0395 9.41662 16.0383 8.38995 15.919C7.38226 15.8019 6.738 15.5783 6.21646 15.186L5.31482 16.3848C6.12828 16.9966 7.06459 17.275 8.21679 17.4089C9.35001 17.5406 10.7706 17.5395 12.5791 17.5395V16.0395ZM2.29195 9.42655C2.71343 11.1852 3.04339 12.5669 3.43559 13.6383C3.83435 14.7275 4.32336 15.5731 5.10793 16.2216L6.06354 15.0654C5.56052 14.6496 5.19292 14.0752 4.84416 13.1226C4.48885 12.152 4.18038 10.87 3.75064 9.07694L2.29195 9.42655ZM6.21646 15.186C6.16457 15.147 6.11359 15.1067 6.06354 15.0654L5.10793 16.2216C5.17564 16.2775 5.24462 16.332 5.31482 16.3848L6.21646 15.186ZM13.0837 17.5395C14.6483 17.5395 15.8774 17.5404 16.8659 17.4404C17.8695 17.3389 18.6953 17.1283 19.4384 16.663L18.6424 15.3917C18.1682 15.6885 17.5955 15.859 16.715 15.948C15.8194 16.0386 14.6788 16.0395 13.0837 16.0395V17.5395ZM19.3643 14.8223C19.145 15.0376 18.9029 15.2285 18.6424 15.3917L19.4384 16.663C19.7909 16.4423 20.1184 16.184 20.4151 15.8927L19.3643 14.8223ZM18.445 5.96053C19.4375 5.96053 20.1131 5.96185 20.6157 6.02318C21.106 6.08301 21.3071 6.18794 21.4273 6.30143L22.4568 5.21052C21.9991 4.77856 21.4246 4.61076 20.7974 4.53423C20.1826 4.4592 19.3986 4.46053 18.445 4.46053V5.96053ZM22.7485 9.91734C22.9708 8.99004 23.1548 8.22794 23.2251 7.61254C23.2969 6.98475 23.2676 6.38698 22.9542 5.8412L21.6534 6.5881C21.7357 6.7315 21.7909 6.95145 21.7348 7.44219C21.6773 7.94532 21.5212 8.60257 21.2898 9.56774L22.7485 9.91734ZM21.4273 6.30143C21.5163 6.38541 21.5925 6.482 21.6534 6.5881L22.9542 5.8412C22.8202 5.60776 22.6526 5.39527 22.4568 5.21052L21.4273 6.30143ZM21.0001 12.25H17.0001V13.75H21.0001V12.25ZM21.9575 9.25L14.0001 9.25V10.75L21.9575 10.75V9.25ZM21.2898 9.56774C21.269 9.65479 21.2484 9.74053 21.2281 9.82505L22.6868 10.1749C22.7071 10.0903 22.7277 10.0044 22.7485 9.91734L21.2898 9.56774ZM21.2281 9.82505C20.9305 11.0658 20.699 12.0133 20.4566 12.7717L21.8855 13.2283C22.148 12.4067 22.3925 11.4015 22.6868 10.1749L21.2281 9.82505ZM20.4566 12.7717C20.1309 13.791 19.8104 14.3844 19.3643 14.8223L20.4151 15.8927C21.1139 15.2067 21.5286 14.3453 21.8855 13.2283L20.4566 12.7717ZM21.0001 13.75H21.1711V12.25H21.0001V13.75Z" fill="white"/>
<path d="M10.4738 19.9474C10.4738 20.5288 10.0025 21 9.42116 21C8.83981 21 8.36853 20.5288 8.36853 19.9474C8.36853 19.3661 8.83981 18.8948 9.42116 18.8948C10.0025 18.8948 10.4738 19.3661 10.4738 19.9474Z" fill="white"/>
<path d="M16.7896 19.9474C16.7896 20.5288 16.3183 21 15.737 21C15.1556 21 14.6843 20.5288 14.6843 19.9474C14.6843 19.3661 15.1556 18.8948 15.737 18.8948C16.3183 18.8948 16.7896 19.3661 16.7896 19.9474Z" fill="white"/>
</svg>

<svg width="24" height="21" fill="none" xmlns="http://www.w3.org/2000/svg"><path d="M1.728.818a.75.75 0 1 0-1.456.364L1.728.818Zm4.038 14.967.45-.599-.45.6ZM3.02 9.252l.73-.175-.73.175Zm2.565 6.391.478-.578-.478.579Zm16.433-5.9.73.174-.73-.174Zm-2.13 5.614-.525-.535.526.536Zm-.849.67.398.636-.398-.636Zm2.902-10.271.515-.545-.515.545Zm.362.459.65-.374-.65.374ZM14 9.25a.75.75 0 0 0 0 1.5v-1.5Zm3 3a.75.75 0 0 0 0 1.5v-1.5ZM2.053 5.96h16.392v-1.5H2.053v1.5Zm11.03 10.08h-.504v1.5h.505v-1.5ZM3.752 9.076l-.969-4.041-1.459.35.969 4.04 1.459-.35Zm-.97-4.048L1.727.819l-1.456.363 1.053 4.21L2.78 5.03Zm9.798 11.01c-1.844 0-3.162 0-4.189-.12-1.008-.117-1.652-.34-2.174-.733l-.901 1.199c.813.612 1.75.89 2.902 1.024 1.133.132 2.554.13 4.362.13v-1.5ZM2.292 9.428c.421 1.758.751 3.14 1.144 4.211.398 1.09.887 1.935 1.672 2.584l.956-1.157c-.503-.415-.871-.99-1.22-1.942-.355-.971-.664-2.253-1.093-4.046l-1.459.35Zm3.924 5.759a4.293 4.293 0 0 1-.152-.12l-.956 1.156c.068.055.137.11.207.163l.901-1.199Zm6.868 2.354c1.564 0 2.793 0 3.782-.1 1.003-.101 1.83-.312 2.572-.777l-.796-1.271c-.474.296-1.046.467-1.927.556-.896.09-2.036.091-3.631.091v1.5Zm6.28-2.718a4.184 4.184 0 0 1-.722.57l.796 1.271c.353-.22.68-.479.977-.77l-1.05-1.07Zm-.919-8.861c.992 0 1.668 0 2.17.062.491.06.692.165.812.278l1.03-1.09c-.458-.432-1.032-.6-1.66-.677-.614-.075-1.398-.073-2.352-.073v1.5Zm4.303 3.956c.223-.927.407-1.69.477-2.304.072-.628.043-1.226-.27-1.772l-1.302.747c.083.143.138.363.082.854-.058.503-.214 1.16-.445 2.126l1.459.35Zm-1.32-3.616c.088.084.165.181.225.287l1.301-.747a2.748 2.748 0 0 0-.497-.63l-1.03 1.09ZM21 12.25h-4v1.5h4v-1.5Zm.957-3H14v1.5h7.957v-1.5Zm-.667.318-.062.257 1.459.35.061-.258-1.458-.35Zm-.062.257c-.298 1.24-.529 2.188-.771 2.947l1.428.456c.263-.821.507-1.826.802-3.053l-1.459-.35Zm-.771 2.947c-.326 1.019-.647 1.612-1.093 2.05l1.051 1.07c.699-.685 1.114-1.547 1.47-2.664l-1.428-.456Zm.543.978h.171v-1.5h-.17v1.5Zm-10.526 6.197a1.053 1.053 0 1 1-2.105 0 1.053 1.053 0 0 1 2.105 0Zm6.316 0a1.053 1.053 0 1 1-2.106 0 1.053 1.053 0 0 1 2.106 0Z" fill="#fff"/></svg>
